!!!OTL: O naiasnieysza lilia
**kern
*staff1
=1-
*clefF4
*k[]
*met(c|)
*M2/2
1G
2E\
2E\
=2
2D\
2G\
1C
2G\
1F#
2G\
=3
1D
1GG
=4
2G\
2C/
1D
=5
1E
1D
=6
2C#/
2D\
1AA
1D
!!linebreak:original
=7
2D\
2D\
2A\
2F\
2G\
2A\
=8
2E\
2E\
2D\
2D\
=9
2G\
2GG/
2AA/
2BB/
=10
2C/
2D\
0GG
==
*-
!!title: @{OTL}, @{GTL}, ed. @{ENC}
!!!pag:
!!!GTL: Hymnbook D
!!!EFL: 
!!!YEM: Creative Commons CC/BY/NC/SA 4.0
!!!ENC: Marcin Konik
!!!END: 2015-0m-dd
!!!EED: Marcin Konik
!!!EEV: 
!!!ONB: Encoded in vim by Marcin Konik
!!!CharacterEncoding: utf-8
!!!RDF**kern: l=long note in original notation
!!!RDF**kern: i=editorial accidental
!!muse2ps: z14jc180F
!!!COM: Anonim
!!!CDT: [?]
!!!TXO: Polish
!!!ODT: 
!!!GTL: Hymnbook D
!!!ARL: Opactwo św. Wojciecha, Staniątki 
!!!voices:	1
